src/32/apps/preferences-system-sharing.svg

<?xml version="1.0" encoding="UTF-8" standalone="no"?>
<svg
   xmlns:osb="http://www.openswatchbook.org/uri/2009/osb"
   xmlns:dc="http://purl.org/dc/elements/1.1/"
   xmlns:cc="http://creativecommons.org/ns#"
   xmlns:rdf="http://www.w3.org/1999/02/22-rdf-syntax-ns#"
   xmlns:svg="http://www.w3.org/2000/svg"
   xmlns="http://www.w3.org/2000/svg"
   xmlns:sodipodi="http://sodipodi.sourceforge.net/DTD/sodipodi-0.dtd"
   xmlns:inkscape="http://www.inkscape.org/namespaces/inkscape"
   id="svg6860"
   height="32"
   width="32"
   version="1.1"
   sodipodi:docname="preferences-system-sharing.svg"
   inkscape:version="0.92.4 (5da689c313, 2019-01-14)">
  <sodipodi:namedview
     pagecolor="#ffffff"
     bordercolor="#666666"
     borderopacity="1"
     objecttolerance="10"
     gridtolerance="10"
     guidetolerance="10"
     inkscape:pageopacity="0"
     inkscape:pageshadow="2"
     inkscape:window-width="1366"
     inkscape:window-height="697"
     id="namedview38"
     showgrid="false"
     inkscape:zoom="14.75"
     inkscape:cx="11.488473"
     inkscape:cy="13.893428"
     inkscape:window-x="0"
     inkscape:window-y="0"
     inkscape:window-maximized="1"
     inkscape:current-layer="svg6860" />
  <defs
     id="defs6862">
    <linearGradient
       osb:paint="solid"
       id="linearGradient4526">
      <stop
         id="stop4528"
         offset="0"
         style="stop-color:#ffffff;stop-opacity:1;" />
    </linearGradient>
  </defs>
  <metadata
     id="metadata6865">
    <rdf:RDF>
      <cc:Work
         rdf:about="">
        <dc:format>image/svg+xml</dc:format>
        <dc:type
           rdf:resource="http://purl.org/dc/dcmitype/StillImage" />
        <dc:title />
      </cc:Work>
    </rdf:RDF>
  </metadata>
  <rect
     width="27"
     height="27"
     rx="2.1600001"
     ry="2.1600001"
     x="2.5"
     y="2.5000002"
     id="rect5505-9"
     style="color:#000000;display:inline;overflow:visible;visibility:visible;fill:#c898f4;fill-opacity:1;fill-rule:nonzero;stroke:none;stroke-width:0.99999994;marker:none;enable-background:accumulate" />
  <rect
     width="27"
     height="27"
     rx="2.1600001"
     ry="2.1600001"
     x="2.4999993"
     y="2.5000002"
     id="rect5505-6-5"
     style="color:#000000;clip-rule:nonzero;display:inline;overflow:visible;visibility:visible;opacity:0.35;isolation:auto;mix-blend-mode:normal;color-interpolation:sRGB;color-interpolation-filters:linearRGB;solid-color:#000000;solid-opacity:1;fill:none;fill-opacity:1;fill-rule:nonzero;stroke:#7239b3;stroke-width:1;stroke-linecap:butt;stroke-linejoin:miter;stroke-miterlimit:4;stroke-dasharray:none;stroke-dashoffset:0;stroke-opacity:1;marker:none;color-rendering:auto;image-rendering:auto;shape-rendering:auto;text-rendering:auto;enable-background:accumulate" />
  <path
     id="path8343-1"
     d="M 19.5,9.0000003 A 2.5,2.5 0 0 0 17,11.5 a 2.5,2.5 0 0 0 0.08789,0.654297 l -3.94336,2.464844 A 2.5,2.5 0 0 0 11.5,14 2.5,2.5 0 0 0 9,16.5 2.5,2.5 0 0 0 11.5,19 2.5,2.5 0 0 0 13.101562,18.417969 l 3.97461,2.484375 A 2.5,2.5 0 0 0 17,21.5 2.5,2.5 0 0 0 19.5,24 2.5,2.5 0 0 0 22,21.5 2.5,2.5 0 0 0 19.5,19 2.5,2.5 0 0 0 17.855469,19.621094 L 13.910156,17.154297 A 2.5,2.5 0 0 0 14,16.5 2.5,2.5 0 0 0 13.92383,15.900391 l 3.972656,-2.482422 A 2.5,2.5 0 0 0 19.5,14 2.5,2.5 0 0 0 22,11.5 2.5,2.5 0 0 0 19.5,9.0000003 Z"
     style="color:#000000;clip-rule:nonzero;display:inline;overflow:visible;visibility:visible;opacity:1;isolation:auto;mix-blend-mode:normal;color-interpolation:sRGB;color-interpolation-filters:linearRGB;solid-color:#000000;solid-opacity:1;fill:#ffffff;fill-opacity:1;fill-rule:evenodd;stroke:none;stroke-width:2;stroke-linecap:butt;stroke-linejoin:round;stroke-miterlimit:4;stroke-dasharray:none;stroke-dashoffset:0;stroke-opacity:1;color-rendering:auto;image-rendering:auto;shape-rendering:auto;text-rendering:auto;enable-background:accumulate" />
</svg>

<svg xmlns="http://www.w3.org/2000/svg" height="32" width="32"><rect width="27" height="27" rx="2.16" ry="2.16" x="2.5" y="2.5" style="marker:none" color="#000" overflow="visible" fill="#c898f4"/><rect width="27" height="27" rx="2.16" ry="2.16" x="2.5" y="2.5" style="isolation:auto;mix-blend-mode:normal;solid-color:#000;solid-opacity:1;marker:none" color="#000" overflow="visible" opacity=".35" fill="none" stroke="#7239b3"/><path d="M19.5 9a2.5 2.5 0 0 0-2.5 2.5 2.5 2.5 0 0 0 .088.654l-3.943 2.465A2.5 2.5 0 0 0 11.5 14 2.5 2.5 0 0 0 9 16.5a2.5 2.5 0 0 0 2.5 2.5 2.5 2.5 0 0 0 1.602-.582l3.974 2.484A2.5 2.5 0 0 0 17 21.5a2.5 2.5 0 0 0 2.5 2.5 2.5 2.5 0 0 0 2.5-2.5 2.5 2.5 0 0 0-2.5-2.5 2.5 2.5 0 0 0-1.645.621l-3.945-2.467A2.5 2.5 0 0 0 14 16.5a2.5 2.5 0 0 0-.076-.6l3.972-2.482A2.5 2.5 0 0 0 19.5 14a2.5 2.5 0 0 0 2.5-2.5A2.5 2.5 0 0 0 19.5 9z" style="isolation:auto;mix-blend-mode:normal;solid-color:#000;solid-opacity:1" color="#000" overflow="visible" fill="#fff" fill-rule="evenodd"/></svg>
